Papirus/24x24/apps/preferences-desktop-peripherals.svg

<?xml version="1.0" encoding="UTF-8" standalone="no"?>
<svg
   xmlns:dc="http://purl.org/dc/elements/1.1/"
   xmlns:cc="http://creativecommons.org/ns#"
   xmlns:rdf="http://www.w3.org/1999/02/22-rdf-syntax-ns#"
   xmlns:svg="http://www.w3.org/2000/svg"
   xmlns="http://www.w3.org/2000/svg"
   version="1.0"
   width="24"
   height="24"
   id="svg2817">
  <defs
     id="defs19" />
  <metadata
     id="metadata57">
    <rdf:RDF>
      <cc:Work
         rdf:about="">
        <dc:format>image/svg+xml</dc:format>
        <dc:type
           rdf:resource="http://purl.org/dc/dcmitype/StillImage" />
        <dc:title></dc:title>
      </cc:Work>
    </rdf:RDF>
  </metadata>
  <g
     transform="translate(-52.273,-2.186)"
     display="none"
     id="layer7">
    <rect
       fill="#abe1ad"
       x="2"
       y="2"
       width="44"
       height="44"
       ry="9"
       rx="9"
       display="inline"
       id="rect4169" />
  </g>
  <rect
     id="rect4203"
     ry="9.9990997"
     rx="10"
     transform="matrix(0,-1,-1,0,0,0)"
     height="19.997999"
     width="20"
     y="-21.999001"
     x="-22"
     style="fill:#5c5c5c" />
  <path
     d="m 11.49974,5.5 0,5.8335 -4.49964,0 0,-1.75 c 0,-1.75 2.24982,-4.08335 4.49964,-4.08335"
     id="path4250" />
  <path
     style="fill:#000000;fill-opacity:1;opacity:0.2"
     d="m 11.479242,5.50005 0,4.4532 -4.479092,0 0,5.3985 c 0,2.3705 1.687365,4.1484 4.49964,4.1484 2.812275,5e-4 4.49964,-1.7775 4.49964,-4.148 l 0,-5.6085 c 0,-1.8185 -2.260319,-4.24295 -4.520138,-4.24295 z"
     id="path4252" />
  <path
     id="rect3436-2"
     d="M 12,2 C 6.4605,2 2.0009,6.46 2.0009,12 c 0,0.084 -0.002,0.1665 0,0.25 C 2.1331,6.827 6.5445,2.5 12,2.5 c 5.4555,0 9.8671,4.327 9.9991,9.75 0.002,-0.0835 0,-0.166 0,-0.25 0,-5.54 -4.459,-10 -9.999,-10 z"
     style="opacity:0.1;fill:#ffffff" />
  <path
     id="path61"
     d="M 11.480469 5 L 11.480469 5.0019531 C 9.2370128 5.0154233 7 7.3390595 7 9.0839844 L 7 9.453125 L 7 10.833984 L 7 14.851562 C 7 17.222062 8.6875 19 11.5 19 C 14.3125 19.0005 16 17.222062 16 14.851562 L 16 9.2441406 C 16 7.4309136 13.753431 5.015947 11.5 5.0019531 L 11.5 5 C 11.496758 5 11.493476 4.9999903 11.490234 5 C 11.48698 4.99999 11.483723 5 11.480469 5 z "
     style="fill:#cccccc;fill-opacity:1" />
  <path
     id="path69"
     d="m 11.5,8 c 0.27548,0 0.49996,0.288 0.49996,0.64285 l 0,1.7143 c 0,0.3545 -0.22448,0.6425 -0.49996,0.6425 -0.276,0 -0.5,-0.288 -0.5,-0.643 l 0,-1.7143 c 0,-0.3545 0.22448,-0.6425 0.49996,-0.6425"
     style="fill:#5d5d5d" />
  <path
     id="rect4218"
     d="m 2.0067,12.25 c -0.00205,0.0835 -0.00585,0.166 -0.00585,0.25 0,5.54 4.4596,10 9.9991,10 5.5395,0 9.9991,-4.46 9.9991,-10 0,-0.084 -0.004,-0.1665 -0.006,-0.25 -0.132,5.423 -4.537,9.75 -9.993,9.75 -5.4555,0 -9.8611,-4.327 -9.9931,-9.75 z"
     style="opacity:0.2" />
</svg>

<?xml version="1.0" encoding="UTF-8" standalone="no"?>
<svg id="svg2817" xmlns:rdf="http://www.w3.org/1999/02/22-rdf-syntax-ns#" xmlns="http://www.w3.org/2000/svg" height="24" width="24" version="1.0" xmlns:cc="http://creativecommons.org/ns#" xmlns:dc="http://purl.org/dc/elements/1.1/">
 <metadata id="metadata57">
  <rdf:RDF>
   <cc:Work rdf:about="">
    <dc:format>image/svg+xml</dc:format>
    <dc:type rdf:resource="http://purl.org/dc/dcmitype/StillImage"/>
    <dc:title/>
   </cc:Work>
  </rdf:RDF>
 </metadata>
 <g id="layer7" transform="translate(-52.273,-2.186)" display="none">
  <rect id="rect4169" rx="9" ry="9" height="44" width="44" y="2" x="2" display="inline" fill="#abe1ad"/>
 </g>
 <rect id="rect4203" ry="9.9991" rx="10" transform="matrix(0,-1,-1,0,0,0)" height="19.998" width="20" y="-21.999" x="-22" fill="#5c5c5c"/>
 <path id="path4250" d="m11.5 5.5v5.8335h-4.4996v-1.75c0-1.75 2.2498-4.0834 4.4996-4.0834"/>
 <path id="path4252" opacity=".2" d="m11.479 5.5v4.4532h-4.4791v5.3985c0 2.3705 1.6874 4.1484 4.4996 4.1484 2.8123 0.0005 4.4996-1.7775 4.4996-4.148v-5.6085c0-1.8185-2.2603-4.243-4.5201-4.243z"/>
 <path id="rect3436-2" opacity=".1" fill="#fff" d="m12 2c-5.5395 0-9.9991 4.46-9.9991 10 0 0.084-0.002 0.1665 0 0.25 0.1322-5.423 4.5436-9.75 9.9991-9.75s9.8671 4.327 9.9991 9.75c0.002-0.0835 0-0.166 0-0.25 0-5.54-4.459-10-9.999-10z"/>
 <path id="path61" fill="#ccc" d="m11.48 5v0.002c-2.243 0.0134-4.48 2.3371-4.48 4.082v0.3691 1.3809 4.018c0 2.37 1.6875 4.148 4.5 4.148 2.812 0 4.5-1.778 4.5-4.148v-5.6079c0-1.8132-2.247-4.2282-4.5-4.2421v-0.002h-0.01-0.01z"/>
 <path id="path69" fill="#5d5d5d" d="m11.5 8c0.27548 0 0.49996 0.288 0.49996 0.64285v1.7143c0 0.3545-0.22448 0.6425-0.49996 0.6425-0.276 0-0.5-0.288-0.5-0.643v-1.7143c0-0.3545 0.22448-0.6425 0.49996-0.6425"/>
 <path id="rect4218" opacity=".2" d="m2.0067 12.25c-0.00205 0.0835-0.00585 0.166-0.00585 0.25 0 5.54 4.4596 10 9.9991 10s9.9991-4.46 9.9991-10c0-0.084-0.004-0.1665-0.006-0.25-0.132 5.423-4.537 9.75-9.993 9.75-5.4555 0-9.8611-4.327-9.9931-9.75z"/>
</svg>
